images/map-icon.svg

<svg fill="none" height="40" viewBox="0 0 40 40" width="40" xmlns="http://www.w3.org/2000/svg"><path d="m20 3.33337c-7.3517 0-13.33336 5.98167-13.33336 13.32503-.04833 10.7416 12.82666 19.6483 13.33336 20.0083 0 0 13.3816-9.2667 13.3333-20 0-7.35166-5.9817-13.33333-13.3333-13.33333zm0 20.00003c-3.6834 0-6.6667-2.9834-6.6667-6.6667s2.9833-6.6667 6.6667-6.6667c3.6833 0 6.6666 2.9834 6.6666 6.6667s-2.9833 6.6667-6.6666 6.6667z" fill="#feffff"/></svg>

<svg width="40" height="40" viewBox="0 0 40 40" fill="none" xmlns="http://www.w3.org/2000/svg">
<path d="M20 3.33337C12.6483 3.33337 6.66664 9.31504 6.66664 16.6584C6.61831 27.4 19.4933 36.3067 20 36.6667C20 36.6667 33.3816 27.4 33.3333 16.6667C33.3333 9.31504 27.3516 3.33337 20 3.33337ZM20 23.3334C16.3166 23.3334 13.3333 20.35 13.3333 16.6667C13.3333 12.9834 16.3166 10 20 10C23.6833 10 26.6666 12.9834 26.6666 16.6667C26.6666 20.35 23.6833 23.3334 20 23.3334Z" fill="#FEFFFF"/>
</svg>
